X: 2
M:2/4
L:1/16
K:G
gf|edB^c dBA=c|BAGF EDEF|GFGA GABc|dedc B2gf|
(3efg de (3Bcd Ac|BAGF EDEF|GFED EGFA|G4 G2:|
|:BA|Bdef gfgb|agfe d2Bd|edef gfed|(3efg af g2fg|
(3efg de (3Bcd Ac|BAGF EDEF|GFED EGFA|G4 G2:|
|:gf|(3efg dB (3cde cA|(3Bcd BG FDEF|GBdB cdec|(3efg (3fga gfed|
(3efg dB (3cde cA|(3Bcd BG FDEF|GFED EGFA|G4 G2:|
|:GF|DGBd dcAB|cBGB BAFA|DGBd dcAg|(3fga gf gdBG|
|:dc|BA (3Bcd ed (3efg|(3fga gf gdBG|BA (3Bcd ed (3efg|(3fga gf g2fg|
(3efg dB (3cde cA|(3Bcd BG FDEc|(3BdB GB (3AcA FA|G4 G2:||

